images/Exercism_files/exercism-with-logo-black-b427c06c6a068ba9f391734115e4d22dfa876d1d.svg

<svg fill="none" height="24" viewBox="0 0 133 24" width="133" xmlns="http://www.w3.org/2000/svg" xmlns:xlink="http://www.w3.org/1999/xlink"><clipPath id="a"><path d="m1.125 0h27.8131v24h-27.8131z"/></clipPath><g fill="#130b43"><g clip-path="url(#a)"><path d="m16.7711 15.3596c0 1.0164-.8799 1.6516-1.6593 1.6516s-1.7145-.3158-1.7145-1.6516v-.6496h-1.0267v.6496c0 1.4793 1.2302 2.6825 2.7412 2.6825s2.7411-1.2032 2.7411-2.6825v-.6496h-1.0818z"/><path d="m8.14791 12.2226c0-.9706.84181-1.7599 1.87609-1.7599 1.0336 0 1.8754.79 1.8754 1.7599h1.1817c0-1.5826-1.3707-2.86957-3.0571-2.86957-1.68641 0-3.05781 1.28697-3.05781 2.86957z"/><path d="m17.8859 12.2226c0-.9706.8419-1.7599 1.8754-1.7599 1.0343 0 1.8761.79 1.8761 1.7599h1.1817c0-1.5826-1.3714-2.86957-3.0578-2.86957s-3.0571 1.28697-3.0571 2.86957z"/><g clip-rule="evenodd" fill-rule="evenodd"><path d="m24.7258 8.45805v-3.81434c0-1.28543-.1562-2.1773-.4688-2.67563-.3125-.49834-.9632-.88257-1.9521-1.152691-.2986-.083832-.4478-.218893-.4478-.405187 0-.251497.3358-.377243 1.0075-.377243h1.0216c1.1102 0 1.9522.344638 2.5259 1.033921.5738.68929.8606 1.69526.8606 3.01795v4.02392c0 .93147.1003 1.64869.3009 2.15165.2006.503.5714.9734 1.1125 1.4112.1586.1304.2379.2375.2379.3214 0 .0838-.0793.1909-.2379.3213-.5504.4471-.9236.9198-1.1195 1.4182-.1959.4983-.2939 1.2132-.2939 2.1447v4.0099c0 1.332-.2892 2.3426-.8676 3.0319s-1.418 1.034-2.5189 1.034h-1.0216c-.4385 0-.716-.021-.8326-.0629s-.1749-.1467-.1749-.3144c0-.2328.1539-.3865.4618-.4611l.5597-.1257c1.2315-.2794 1.8472-1.495 1.8472-3.6467v-3.8143c0-1.4438.3499-2.4638 1.0496-3.0599l.2659-.2235c.1306-.1118.1959-.1957.1959-.2515 0-.0652-.0653-.1491-.1959-.2515l-.2659-.2236c-.6997-.5961-1.0496-1.61607-1.0496-3.05985z"/><path d="m5.32324 8.42509v-3.81434c0-1.28543.15627-2.1773.4688-2.67563.31254-.49834.96325-.88256 1.95217-1.15269.29854-.083832.44781-.218893.44781-.405187 0-.251497-.33586-.377243-1.00757-.377243h-1.02157c-1.11019 0-1.95216.344638-2.52592 1.03393-.57375.68928-.86063 1.69525-.86063 3.01794v4.02393c0 .93146-.10029 1.64868-.30087 2.1517-.20058.503-.57142.9734-1.11252 1.4111-.1586.1305-.2379.2376-.2379.3214s.0793.191.2379.3214c.55043.4471.9236.9198 1.11952 1.4181s.29387 1.2132.29387 2.1447v4.01c0 1.332.28921 2.3426.86763 3.0319s1.41806 1.0339 2.51892 1.0339h1.02157c.43848 0 .71602-.021.83264-.0629s.17493-.1467.17493-.3143c0-.2329-.15394-.3866-.46181-.4611l-.55976-.1258c-1.23148-.2794-1.84721-1.495-1.84721-3.6466v-3.8144c0-1.4438-.34984-2.4637-1.04955-3.0599l-.26588-.2235c-.13062-.1118-.19592-.1956-.19592-.2515 0-.0652.0653-.149.19592-.2515l.26588-.2235c.69971-.5962 1.04955-1.61613 1.04955-3.05991z"/></g></g><path clip-rule="evenodd" d="m94.6542 5.47101c0 1.31401.7425 1.97102 2.2274 1.97102 1.3199 0 1.9799-.65701 1.9799-1.97102s-.66-1.97101-1.9799-1.97101c-1.4849 0-2.2274.657-2.2274 1.97101zm-29.42 10.03249c1.2668 1.9526 3.6778 2.278 7.2331.9763 1.247 5.1254-11.2237 5.6136-11.2237-2.1966.4863-7.0193 6.7342-7.0193 9.2283-5.61355 2.8578 1.45905 3.2424 5.12545.7483 6.34575-.7583.4109-2.7536.5737-5.986.4881zm0-2.6847c.7483-3.17288 3.7412-1.9525 3.7412-.7322 0 .0125.0007.0263.0014.0411.0131.2754.0438.9227-3.7426.6911zm16.9502-1.6312c-1.7304-.2406-2.7337.0083-3.0102.7467-.2764.7384-.36 3.3934-.2508 7.9649-1.8545.3023-3.0251-.0296-3.5119-.9956-.4867-.966-.654-3.2891-.5017-6.9693.1673-1.99123 1.0034-3.23575 2.5085-3.73356 1.0135-.33522 3.4259-.52137 4.5153.49781.3522.32955.4358 1.15923.2508 2.48905zm18.4006 8.4608c-1.7322 1.1777-4.3864.4305-5.0315-.4949-.8399-1.2048-1.0915-4.6691-.7548-10.39309 1.802-.2072 2.976-.04223 3.5221.49491.698.6866.6965 3.59528.6955 5.50598v.0001.0001c-.0005.8437-.0008 1.4928.0592 1.67.2564.7566.9275 1.004 2.0125.7424.013 1.4127-.154 2.2375-.503 2.4745zm-13.6234-5.6367c0-3.4092 3.9392-3.4092 5.9088-1.9481 0-.0542.004-.1282.0088-.2182.0612-1.136.26-4.82969-5.6714-3.69748-2.462.73314-4.1854 3.42138-4.1854 5.87528 0 2.9224 1.4772 4.8775 4.1854 5.855 6.6474.9775 5.6626-3.9184 5.6626-3.9184-1.7234 1.2176-5.9088 1.4611-5.9088-1.9481zm-38.0296-5.78295c3.5913-.37471 4.7155 1.55221 5.3782 2.68815.2004.3436.3586.6148.5301.7281 0 0 1.7233-1.70814 1.9694-3.41625 3.9389-.16267 3.9389 1.87075 0 6.10035 1.4771 2.2775 2.7901 3.4976 3.9389 3.6603-.2462 1.9521-2.041 2.4097-3.6927 1.7081-1.7232-.7321-2.9541-3.1722-2.9541-3.1722-.9847 0-1.9695 3.1722-1.9695 3.4162-4.2671.1627-4.3491-1.9521-.2461-6.3444-1.9695-2.2775-2.9542-4.06693-2.9542-5.36835zm-1.7083 8.25105c-3.5553 1.3017-5.9663.9763-7.2331-.9763 3.2324.0856 5.2277-.0772 5.986-.4881 2.4941-1.2203 2.1095-4.8867-.7483-6.34575-2.4941-1.40575-8.742-1.40575-9.2283 5.61355 0 7.8102 12.4707 7.322 11.2237 2.1966zm-3.4918-4.3932c0-1.2203-2.993-2.44068-3.7413.7322 3.7864.2316 3.7557-.4157 3.7426-.6911-.0007-.0149-.0013-.0286-.0013-.0411zm67.9941-.1267c1.223-5.44604-8.322-4.95094-9.301-.9902-.638 3.8747 1.95 4.2748 3.828 4.565 1.002.1548 1.801.2783 1.801.881 0 1.7329-4.16.7427-5.384 0-1.468 4.951 7.587 5.4461 9.056 1.2378.624-1.9999.045-3.5039-1.224-4.2083-.767-.4257-1.582-.5203-2.314-.6053-.906-.1051-1.686-.1956-2.092-.88-.489-.9902 2.448-1.7328 5.63 0zm6.362 4.9505c.052 1.0188.108 2.1163.108 3.2419-4.35.6574-4.294-1.9661-4.219-5.4907.01-.4772.021-.9709.021-1.4752 0-5.7221 7.162-6.71724 9.384-3.23425 2.223-3.2342 9.138-2.98542 9.138 4.14205v6.0581c-4.112.5021-4.199-1.4927-4.199-3.9805 0-.3703.003-.718.006-1.0438.022-2.7397.031-3.9319-1.734-3.9319-1.443.1816-1.437 1.6428-1.425 4.776.004 1.1583.01 2.5451-.057 4.1802-3.704.4976-3.704-1.2439-3.704-2.9854 0-.3521.003-.7019.007-1.0452.029-2.6556.054-4.9256-1.736-4.9256-1.882 0-1.756 2.4548-1.59 5.7143z" fill-rule="evenodd"/></g></svg>

<svg width="133" height="24" viewBox="0 0 133 24" fill="none" xmlns="http://www.w3.org/2000/svg">
<g clip-path="url(#clip0)">
<path d="M16.7711 15.3596C16.7711 16.376 15.8912 17.0112 15.1118 17.0112C14.3324 17.0112 13.3973 16.6954 13.3973 15.3596V14.71H12.3706V15.3596C12.3706 16.8389 13.6008 18.0421 15.1118 18.0421C16.6228 18.0421 17.8529 16.8389 17.8529 15.3596V14.71H16.7711V15.3596Z" fill="#130B43"/>
<path d="M8.14791 12.2226C8.14791 11.252 8.98972 10.4627 10.024 10.4627C11.0576 10.4627 11.8994 11.2527 11.8994 12.2226H13.0811C13.0811 10.64 11.7104 9.35303 10.024 9.35303C8.33759 9.35303 6.96619 10.64 6.96619 12.2226H8.14791Z" fill="#130B43"/>
<path d="M17.8859 12.2226C17.8859 11.252 18.7278 10.4627 19.7613 10.4627C20.7956 10.4627 21.6374 11.2527 21.6374 12.2226H22.8191C22.8191 10.64 21.4477 9.35303 19.7613 9.35303C18.0749 9.35303 16.7042 10.64 16.7042 12.2226H17.8859Z" fill="#130B43"/>
<path fill-rule="evenodd" clip-rule="evenodd" d="M24.7258 8.45805V4.64371C24.7258 3.35828 24.5696 2.46641 24.257 1.96808C23.9445 1.46974 23.2938 1.08551 22.3049 0.815389C22.0063 0.731557 21.8571 0.596496 21.8571 0.410202C21.8571 0.158705 22.1929 0.032959 22.8646 0.032959H23.8862C24.9964 0.032959 25.8384 0.377597 26.4121 1.06688C26.9859 1.75617 27.2727 2.76214 27.2727 4.08483V8.10875C27.2727 9.04022 27.373 9.75744 27.5736 10.2604C27.7742 10.7634 28.145 11.2338 28.6861 11.6716C28.8447 11.802 28.924 11.9091 28.924 11.993C28.924 12.0768 28.8447 12.1839 28.6861 12.3143C28.1357 12.7614 27.7625 13.2341 27.5666 13.7325C27.3707 14.2308 27.2727 14.9457 27.2727 15.8772V19.8871C27.2727 21.2191 26.9835 22.2297 26.4051 22.919C25.8267 23.6083 24.9871 23.953 23.8862 23.953H22.8646C22.4261 23.953 22.1486 23.932 22.032 23.8901C21.9154 23.8482 21.8571 23.7434 21.8571 23.5757C21.8571 23.3429 22.011 23.1892 22.3189 23.1146L22.8786 22.9889C24.1101 22.7095 24.7258 21.4939 24.7258 19.3422V15.5279C24.7258 14.0841 25.0757 13.0641 25.7754 12.468L26.0413 12.2445C26.1719 12.1327 26.2372 12.0488 26.2372 11.993C26.2372 11.9278 26.1719 11.8439 26.0413 11.7415L25.7754 11.5179C25.0757 10.9218 24.7258 9.90183 24.7258 8.45805Z" fill="#130B43"/>
<path fill-rule="evenodd" clip-rule="evenodd" d="M5.32324 8.42509V4.61075C5.32324 3.32532 5.47951 2.43345 5.79204 1.93512C6.10458 1.43678 6.75529 1.05256 7.74421 0.78243C8.04275 0.698598 8.19202 0.563537 8.19202 0.377243C8.19202 0.125746 7.85616 0 7.18445 0H6.16288C5.05269 0 4.21072 0.344638 3.63696 1.03393C3.06321 1.72321 2.77633 2.72918 2.77633 4.05187V8.0758C2.77633 9.00726 2.67604 9.72448 2.47546 10.2275C2.27488 10.7305 1.90404 11.2009 1.36294 11.6386C1.20434 11.7691 1.12504 11.8762 1.12504 11.96C1.12504 12.0438 1.20434 12.151 1.36294 12.2814C1.91337 12.7285 2.28654 13.2012 2.48246 13.6995C2.67838 14.1978 2.77633 14.9127 2.77633 15.8442V19.8542C2.77633 21.1862 3.06554 22.1968 3.64396 22.8861C4.22238 23.5754 5.06202 23.92 6.16288 23.92H7.18445C7.62293 23.92 7.90047 23.899 8.01709 23.8571C8.13371 23.8152 8.19202 23.7104 8.19202 23.5428C8.19202 23.3099 8.03808 23.1562 7.73021 23.0817L7.17045 22.9559C5.93897 22.6765 5.32324 21.4609 5.32324 19.3093V15.4949C5.32324 14.0511 4.9734 13.0312 4.27369 12.435L4.00781 12.2115C3.87719 12.0997 3.81189 12.0159 3.81189 11.96C3.81189 11.8948 3.87719 11.811 4.00781 11.7085L4.27369 11.485C4.9734 10.8888 5.32324 9.86887 5.32324 8.42509Z" fill="#130B43"/>
</g>
<path fill-rule="evenodd" clip-rule="evenodd" d="M94.6542 5.47101C94.6542 6.78502 95.3967 7.44203 96.8816 7.44203C98.2015 7.44203 98.8615 6.78502 98.8615 5.47101C98.8615 4.157 98.2015 3.5 96.8816 3.5C95.3967 3.5 94.6542 4.157 94.6542 5.47101ZM65.2342 15.5035C66.501 17.4561 68.912 17.7815 72.4673 16.4798C73.7143 21.6052 61.2436 22.0934 61.2436 14.2832C61.7299 7.2639 67.9778 7.2639 70.4719 8.66965C73.3297 10.1287 73.7143 13.7951 71.2202 15.0154C70.4619 15.4263 68.4666 15.5891 65.2342 15.5035ZM65.2342 12.8188C65.9825 9.64592 68.9754 10.8663 68.9754 12.0866C68.9754 12.0991 68.9761 12.1129 68.9768 12.1277C68.9899 12.4031 69.0206 13.0504 65.2342 12.8188ZM82.1844 11.1876C80.454 10.947 79.4507 11.1959 79.1742 11.9343C78.8978 12.6727 78.8142 15.3277 78.9234 19.8992C77.0689 20.2015 75.8983 19.8696 75.4115 18.9036C74.9248 17.9376 74.7575 15.6145 74.9098 11.9343C75.0771 9.94307 75.9132 8.69855 77.4183 8.20074C78.4318 7.86552 80.8442 7.67937 81.9336 8.69855C82.2858 9.0281 82.3694 9.85778 82.1844 11.1876ZM100.585 19.6484C98.8528 20.8261 96.1986 20.0789 95.5535 19.1535C94.7136 17.9487 94.462 14.4844 94.7987 8.76041C96.6007 8.55321 97.7747 8.71818 98.3208 9.25532C99.0188 9.94192 99.0173 12.8506 99.0163 14.7613V14.7614V14.7614V14.7614V14.7615V14.7615V14.7615C99.0158 15.6052 99.0155 16.2543 99.0755 16.4315C99.3319 17.1881 100.003 17.4355 101.088 17.1739C101.101 18.5866 100.934 19.4114 100.585 19.6484ZM86.9616 14.0117C86.9616 10.6025 90.9008 10.6025 92.8704 12.0636C92.8704 12.0094 92.8744 11.9354 92.8792 11.8454C92.9404 10.7094 93.1392 7.01571 87.2078 8.14792C84.7458 8.88106 83.0224 11.5693 83.0224 14.0232C83.0224 16.9456 84.4996 18.9007 87.2078 19.8782C93.8552 20.8557 92.8704 15.9598 92.8704 15.9598C91.147 17.1774 86.9616 17.4209 86.9616 14.0117ZM48.932 8.22875C52.5233 7.85404 53.6475 9.78096 54.3102 10.9169C54.5106 11.2605 54.6688 11.5317 54.8403 11.645C54.8403 11.645 56.5636 9.93686 56.8097 8.22875C60.7486 8.06608 60.7486 10.0995 56.8097 14.3291C58.2868 16.6066 59.5998 17.8267 60.7486 17.9894C60.5024 19.9415 58.7076 20.3991 57.0559 19.6975C55.3327 18.9654 54.1018 16.5253 54.1018 16.5253C53.1171 16.5253 52.1323 19.6975 52.1323 19.9415C47.8652 20.1042 47.7832 17.9894 51.8862 13.5971C49.9167 11.3196 48.932 9.53017 48.932 8.22875ZM47.2237 16.4798C43.6684 17.7815 41.2574 17.4561 39.9906 15.5035C43.223 15.5891 45.2183 15.4263 45.9766 15.0154C48.4707 13.7951 48.0861 10.1287 45.2283 8.66965C42.7342 7.2639 36.4863 7.2639 36 14.2832C36 22.0934 48.4707 21.6052 47.2237 16.4798ZM43.7319 12.0866C43.7319 10.8663 40.7389 9.64592 39.9906 12.8188C43.777 13.0504 43.7463 12.4031 43.7332 12.1277L43.7332 12.1277C43.7325 12.1128 43.7319 12.0991 43.7319 12.0866ZM111.726 11.9599C112.949 6.51386 103.404 7.00896 102.425 10.9697C101.787 14.8444 104.375 15.2445 106.253 15.5347C107.255 15.6895 108.054 15.813 108.054 16.4157C108.054 18.1486 103.894 17.1584 102.67 16.4157C101.202 21.3667 110.257 21.8618 111.726 17.6535C112.35 15.6536 111.771 14.1496 110.502 13.4452C109.735 13.0195 108.92 12.9249 108.188 12.8399C107.282 12.7348 106.502 12.6443 106.096 11.9599C105.607 10.9697 108.544 10.2271 111.726 11.9599ZM118.088 16.9104C118.14 17.9292 118.196 19.0267 118.196 20.1523C113.846 20.8097 113.902 18.1862 113.977 14.6616C113.987 14.1844 113.998 13.6907 113.998 13.1864C113.998 7.4643 121.16 6.46916 123.382 9.95215C125.605 6.71795 132.52 6.96673 132.52 14.0942V20.1523C128.408 20.6544 128.321 18.6596 128.321 16.1718C128.321 15.8015 128.324 15.4538 128.327 15.128C128.349 12.3883 128.358 11.1961 126.593 11.1961C125.15 11.3777 125.156 12.8389 125.168 15.9721C125.172 17.1304 125.178 18.5172 125.111 20.1523C121.407 20.6499 121.407 18.9084 121.407 17.1669C121.407 16.8148 121.41 16.465 121.414 16.1217C121.443 13.4661 121.468 11.1961 119.678 11.1961C117.796 11.1961 117.922 13.6509 118.088 16.9104Z" fill="#130B43"/>
<defs>
<clipPath id="clip0">
<rect width="27.8131" height="24" fill="white" transform="translate(1.125)"/>
</clipPath>
</defs>
</svg>
